X: 11802
M: C
L: 1/16
K: G
d2 |\
dG3eG3 dG3ge3 | d2G2 {e}d2cB {B}A4 A2Bc |
dG3d3B gb3ab3 | {a}g3e{e}d3B G4- G2Bc |\
d3GeG3 d3Gg3e | d2G2 {e}d2cB {B}A4 A2Bc |\
dG3d3B gb3ab3 | {a}g2e2{e}d2B2 G4G2 |]


